brandFactory_export/3.Masa/Click to call_3Masa.svg

<?xml version="1.0" encoding="UTF-8"?>
<svg width="24px" height="24px" viewBox="0 0 24 24" version="1.1" xmlns="http://www.w3.org/2000/svg" xmlns:xlink="http://www.w3.org/1999/xlink">
    <title>3.Masa/Click to call_3Masa</title>
    <g id="Symbols" stroke="none" stroke-width="1" fill="none" fill-rule="evenodd">
        <g id="3.Masa/Click-to-call_3Masa" fill="#5CB615" fill-rule="nonzero">
            <path d="M4.7394958,0.00672268908 C5.75798319,0.0235294118 6.76302521,0.524369748 7.72773109,1.48907563 C8.09411765,1.84537815 8.41008403,2.2487395 8.67226891,2.68907563 C9.18991597,3.52268908 9.37142857,4.37983193 9.22689076,5.24369748 C9.08235294,6.10756303 8.59831933,6.95462185 7.79159664,7.76134454 C7.60672269,7.95294118 7.40504202,8.12773109 7.19663866,8.29243697 C7.11932773,8.43361345 7.16638655,8.88067227 7.79159664,9.79495798 C8.51764706,10.8504202 9.72773109,12.1008403 10.5747899,12.9478992 L10.5747899,12.9478992 L10.6756303,13.0487395 C11.5226891,13.8957983 12.7731092,15.1058824 13.8285714,15.8319328 C14.7428571,16.4605042 15.189916,16.507563 15.3310924,16.4268908 C15.4957983,16.2184874 15.6739496,16.0201681 15.8621849,15.8319328 C16.6689076,15.0252101 17.5159664,14.5445378 18.3798319,14.3966387 C19.2436975,14.2487395 20.107563,14.4369748 20.9411765,14.9546218 C21.3781513,15.2168067 21.7815126,15.5327731 22.1411765,15.8991597 C23.1058824,16.8638655 23.6033613,17.8689076 23.6235294,18.887395 C23.6436975,19.9428571 23.1462185,21.0084034 22.1546218,22.0537815 C21.805042,22.4201681 21.3176471,22.7731092 21.1563025,22.887395 L21.1563025,22.887395 L21.1361345,22.9008403 C21.1260504,22.9109244 21.1159664,22.9176471 21.1058824,22.9243697 C20.4302521,23.3915966 19.5731092,23.6235294 18.5815126,23.6235294 C17.5428571,23.6235294 16.3529412,23.3647059 15.0689076,22.8537815 C12.4470588,21.8084034 9.57647059,19.7714286 6.7697479,16.9647059 L6.7697479,16.9647059 L6.76302521,16.9579832 L6.67563025,16.8705882 C3.86218487,14.0571429 1.82521008,11.1865546 0.779831933,8.56470588 C-0.22184874,6.05714286 -0.245378152,3.91260504 0.709243697,2.52773109 L0.709243697,2.52773109 L0.729411764,2.49747899 L0.742857143,2.47731092 C0.857142857,2.31596639 1.21008403,1.82857143 1.57647059,1.4789916 C2.60168067,0.500840336 3.64369748,0.00672268908 4.6789916,0.00672268908 L4.6789916,0.00672268908 Z M19.7142857,2.27563025 C20.0302521,2.30252101 20.3193277,2.46386555 20.507563,2.71596639 L21.8689076,4.23193277 C22.0840336,4.47394958 22.1848739,4.79327731 22.1445378,5.11260504 C22.107563,5.41176471 21.9495798,5.68403361 21.7042017,5.86218487 L18.0840336,9.0487395 L18.8773109,9.92941176 C19.112605,10.1882353 19.1798319,10.5176471 19.0621849,10.8134454 C18.9445378,11.1092437 18.6655462,11.3008403 18.3193277,11.3277311 L12.8,11.7547054 L12.7226891,11.7547054 C12.2218487,11.7613445 11.8084034,11.3613445 11.8016807,10.8605042 C11.8016807,10.7865546 11.8084034,10.712605 11.8252101,10.6386555 L12.9882353,5.19663866 C13.0588235,4.8605042 13.2840336,4.61176471 13.5865546,4.52773109 C13.8890756,4.44369748 14.2084034,4.5512605 14.4403361,4.80672269 L15.2436975,5.69411765 L18.8806723,2.56806723 C19.102521,2.35294118 19.4084034,2.2487395 19.7142857,2.27563025 Z" id="Click-to-call_3Masa"></path>
        </g>
    </g>
</svg>

<svg width="24" height="24" viewBox="0 0 24 24" xmlns="http://www.w3.org/2000/svg"><path d="M4.74.007c1.018.017 2.023.517 2.988 1.482.366.356.682.76.944 1.2.518.834.7 1.69.555 2.555-.145.864-.629 1.71-1.435 2.517a5.94 5.94 0 01-.595.531c-.078.142-.03.589.595 1.503.726 1.055 1.936 2.306 2.783 3.153l.1.1c.848.848 2.098 2.058 3.154 2.784.914.629 1.36.676 1.502.595.165-.209.343-.407.531-.595.807-.807 1.654-1.287 2.518-1.435.864-.148 1.728.04 2.561.558.437.262.84.578 1.2.944.965.965 1.462 1.97 1.483 2.988.02 1.056-.478 2.121-1.47 3.167-.349.366-.836.72-.998.833l-.02.014a.185.185 0 01-.03.023c-.676.468-1.533.7-2.524.7-1.04 0-2.23-.26-3.513-.77-2.622-1.046-5.493-3.083-8.3-5.89l-.006-.006-.087-.087C3.862 14.057 1.826 11.187.78 8.565-.222 6.057-.245 3.913.71 2.528l.02-.03.013-.02c.114-.162.467-.65.833-.999C2.602.501 3.644.007 4.68.007zm14.974 2.269c.316.027.605.188.794.44l1.36 1.516c.216.242.317.561.277.88a1.09 1.09 0 01-.44.75L18.083 9.05l.793.88c.236.26.303.589.185.884-.117.296-.396.488-.743.515l-5.519.427h-.077a.908.908 0 01-.898-1.116l1.163-5.442c.07-.336.296-.585.599-.67.302-.083.621.024.853.28l.804.887 3.637-3.126c.222-.215.527-.32.833-.292z" fill="#5CB615" fill-rule="nonzero"/></svg>
